X: 12613
T: Farewell To Whalley Range
R: slip jig
M: 9/8
K: Eminor
E2B AGE ~E2D|E2B AGB edB|A3 AGA B2G|1 ~A3 AGA BAG:|2 ~A3 ABA Bde||
g3 edB edB|A3 AGA Bde|g3 age ged|edB ABd edB|
g2e edB edB|A3 AGA Bde|g3 age ged|edB edB AGA||

